lightbulb-group-off.svg

<svg fill="currentColor" viewBox="0 0 24 24"><path d="M20.84 22.73 18.09 20h-1.26c.11-.32.17-.66.17-1v-.11l-2.25-2.25c-.18.22-.44.36-.75.36h-4c-.55 0-1-.45-1-1v-2c-1.6-1.2-2.26-3.16-1.88-5L5.5 7.4C5.18 8.23 5 9.11 5 10c0 1.83.72 3.58 2 4.88V17H5c-.55 0-1-.45-1-1v-1.55a4.05 4.05 0 0 1-2-3.14C1.85 9.27 3.25 7.5 5.2 7.09L1.11 3l1.28-1.27 19.72 19.73zM15 6c-1.78-1.33-4.14-1.28-5.87-.07l6.95 6.95A5 5 0 0 0 15 6m4.79 10.59c.12-.17.21-.37.21-.59v-1.55c1.91-1.11 2.57-3.55 1.46-5.45a4 4 0 0 0-3.14-2c.45.94.68 1.96.68 3 0 1.57-.53 3.09-1.5 4.31zM10 19c0 .55.45 1 1 1h2c.55 0 1-.45 1-1v-1h-4zm-3-1H5v1c0 .55.45 1 1 1h1.17c-.11-.32-.17-.66-.17-1z"/></svg>

<svg  viewBox="0 0 24 24" fill="currentColor"><path  d="M20.84 22.73L18.09 20C18.06 20 18.03 20 18 20H16.83C16.94 19.68 17 19.34 17 19V18.89L14.75 16.64C14.57 16.86 14.31 17 14 17H10C9.45 17 9 16.55 9 16V14C7.4 12.8 6.74 10.84 7.12 9L5.5 7.4C5.18 8.23 5 9.11 5 10C5 11.83 5.72 13.58 7 14.88V17H5C4.45 17 4 16.55 4 16V14.45C2.86 13.79 2.12 12.62 2 11.31C1.85 9.27 3.25 7.5 5.2 7.09L1.11 3L2.39 1.73L22.11 21.46L20.84 22.73M15 6C13.22 4.67 10.86 4.72 9.13 5.93L16.08 12.88C17.63 10.67 17.17 7.63 15 6M19.79 16.59C19.91 16.42 20 16.22 20 16V14.45C21.91 13.34 22.57 10.9 21.46 9C20.8 7.85 19.63 7.11 18.32 7C18.77 7.94 19 8.96 19 10C19 11.57 18.47 13.09 17.5 14.31L19.79 16.59M10 19C10 19.55 10.45 20 11 20H13C13.55 20 14 19.55 14 19V18H10V19M7 18H5V19C5 19.55 5.45 20 6 20H7.17C7.06 19.68 7 19.34 7 19V18Z"/></svg>
